svgs/thin/book-tanakh.svg

<svg xmlns="http://www.w3.org/2000/svg" viewBox="0 0 448 512"><!--! Font Awesome Pro 6.3.0 by @fontawesome - https://fontawesome.com License - https://fontawesome.com/license (Commercial License) Copyright 2023 Fonticons, Inc. --><path d="M341.1 144.4C339.1 139.2 333.6 136 327.5 136h-59.71l-29.72-48.22c-6-9.75-22.19-9.734-28.19-.0156L180.2 136H120.5c-6.031 0-11.59 3.203-14.47 8.359C103.2 149.4 103.3 155.3 106.3 160.2l29.46 47.79L106.3 255.8C103.3 260.7 103.2 266.6 105.1 271.6C108.9 276.8 114.4 280 120.5 280h59.71l29.72 48.22C212.9 333.1 218.2 336 224 336s11.09-2.906 14.09-7.766L267.8 280h59.71c6.031 0 11.59-3.203 14.47-8.359c2.814-5.031 2.689-10.95-.3418-15.86l-29.46-47.79l29.46-47.79C344.7 155.3 344.8 149.4 341.1 144.4zM224.5 96.17L249.1 136H199.7L224.5 96.17zM119.1 152.2C119.1 152.2 120.1 152 120.5 152l49.88-.0469L145.1 192.9L119.1 152.2zM119.1 264.2l25.35-40.75l25.09 40.7L119.1 264.2zM223.5 319.8L198.9 280h49.37L223.5 319.8zM258.2 264.1L189.1 264.1L154.7 208.4l35.1-56.44l69.09-.0625l34.44 55.75L258.2 264.1zM328 263.8c0 .0156-.0938 .1719-.5 .1719l-49.88 .0469l25.23-40.93L328 263.8zM302.7 192.6l-25.09-40.7l50.44-.0469L302.7 192.6zM384 0H32C14.33 0 0 14.33 0 32v352c0 17.67 14.33 32 32 32v79.98H8.006C3.584 495.1 0 499.6 0 503.1c0 4.418 3.584 8.004 8.006 8l383.1-.0078c30.93 0 55.1-25.07 55.1-56V64C448 28.65 419.3 0 384 0zM392 495.1H48V416l342.2-.0156c20.88 0 39.56 15.23 41.58 36.02C434.1 475.8 415.4 495.1 392 495.1zM432 416.9c-10.18-10.42-24.32-16.93-40-16.93L32 400c-8.822 0-16-7.176-16-16V32c0-8.836 7.164-16 16-16h352c26.47 0 48 21.53 48 48V416.9z"/></svg>

<svg xmlns="http://www.w3.org/2000/svg" viewBox="0 0 448 512"><!-- Font Awesome Pro 6.0.0-alpha2 by @fontawesome - https://fontawesome.com License - https://fontawesome.com/license (Commercial License) --><path d="M341.998 144.359C339.125 139.203 333.562 136 327.531 136H267.818L238.094 87.781C232.094 78.031 215.906 78.047 209.906 87.766L180.178 136H120.469C114.437 136 108.875 139.203 105.999 144.359C103.188 149.391 103.312 155.312 106.344 160.219L135.801 208.004L106.344 255.797C103.312 260.688 103.188 266.609 105.999 271.641C108.875 276.797 114.438 280 120.469 280H180.182L209.906 328.219C212.906 333.094 218.156 336 224 336S235.094 333.094 238.094 328.234L267.822 280H327.531C333.563 280 339.125 276.797 341.998 271.641C344.813 266.609 344.688 260.687 341.656 255.781L312.199 207.996L341.656 160.203C344.688 155.312 344.812 149.391 341.998 144.359ZM224.469 96.172L249.07 136H199.697L224.469 96.172ZM119.969 152.172C119.969 152.156 120.062 152 120.469 152L170.344 151.953L145.117 192.883L119.969 152.172ZM119.969 264.188L145.314 223.438L170.406 264.141L119.969 264.188ZM223.531 319.828L198.93 280H248.303L223.531 319.828ZM258.215 264.062L189.123 264.125L154.684 208.375L189.785 151.938L258.877 151.875L293.316 207.625L258.215 264.062ZM328.031 263.828C328.031 263.844 327.938 264 327.531 264L277.656 264.047L302.883 223.117L328.031 263.828ZM302.686 192.562L277.594 151.859L328.031 151.812L302.686 192.562ZM384 0H32C14.326 0 0 14.328 0 32V384C0 401.672 14.326 416 32 416V495.984H8.006C3.584 495.984 0 499.57 0 503.992C0 508.41 3.584 511.996 8.006 511.992L392.002 511.984C422.93 511.984 448 486.91 448 455.984V64C448 28.652 419.346 0 384 0ZM392 495.984H48V416L390.23 415.984C411.111 415.984 429.787 431.219 431.807 452C434.123 475.844 415.377 495.984 392 495.984ZM432 416.922C421.824 406.504 407.676 399.988 392 399.988L32 400C23.178 400 16 392.824 16 384V32C16 23.164 23.164 16 32 16H384C410.467 16 432 37.531 432 64V416.922Z"/></svg>
